file/groupon.svg

<svg clip-rule="evenodd" fill-rule="evenodd" stroke-linejoin="round" stroke-miterlimit="1.41421" viewBox="0 0 560 400" xmlns="http://www.w3.org/2000/svg"><path d="m206.6 121h14.2v36.4c0 14.2-8.7 22.7-21.7 22.7-13.2 0-21.1-8.1-21.1-22.7v-36.4h14.3v35.8c0 6.5 2.1 9.9 6.9 9.9 5 0 7.4-3.3 7.4-9.9zm60.3 19.6c0 7.5-3.4 13.7-9.2 17.3-3.7 2.2-8.3 2.6-14.3 2.6h-4.1v18.7h-14.3v-58.2h19.3c6.1 0 10.8.4 14.7 3.2 5.2 3.6 7.9 9.1 7.9 16.4zm-14.4.2c0-4.8-3-6.8-9.3-6.8h-3.8v13.8h2.6c7 .1 10.5-1.7 10.5-7zm113.1 12.6-21.4-32.4h-12.8v58.2h14.2v-32.4l21.7 32.4h12.5v-58.2h-14.2zm-200.2-24.8c5.9 5.8 9 13.2 9 21.2 0 8.3-2.9 15.8-8.4 21.4-5.6 5.9-13.3 9.1-21.4 9.1-8.6 0-16-3.1-21.7-9.2-5.5-5.8-8.3-13-8.3-21.6 0-8 3.1-15.4 8.8-21s12.9-8.5 21.2-8.5c7.8 0 15.2 3 20.8 8.6zm-5.7 21.1c0-8.5-6.8-15.3-15-15.3-8.7 0-15.5 6.8-15.5 15.3 0 9.2 7.3 16.2 15.3 16.2 8.4 0 15.2-6.7 15.2-16.2zm159.9-21.1c5.9 5.8 9 13.2 9 21.2 0 8.3-2.9 15.8-8.4 21.4-5.6 5.9-13.3 9.1-21.4 9.1-8.6 0-15.9-3.1-21.7-9.2-5.5-5.8-8.3-13-8.3-21.6 0-8 3.1-15.4 8.8-21s12.9-8.5 21.2-8.5c7.7 0 15.1 3 20.8 8.6zm-5.7 21.1c0-8.5-6.8-15.3-15-15.3-8.7 0-15.5 6.8-15.5 15.3 0 9.2 7.3 16.2 15.3 16.2 8.3 0 15.1-6.7 15.2-16.2zm-280.3-3.2v11.6h16.6c-2.9 5.1-7.7 7.9-13.1 7.9-8 0-15.2-7.1-15.2-16.4 0-8.4 6.7-15.3 15.2-15.3 4.6 0 8.3 1.9 12 5.6h16.2c-4.7-12.4-15.5-20.1-28-20.1-8.3 0-15.5 2.9-21.2 8.6-5.7 5.6-8.8 13-8.8 21 0 8.6 2.8 15.8 8.2 21.6 5.7 6.1 13 9.2 21.6 9.2 9.9 0 19.2-4.9 24.8-13 3.4-4.9 5-10.5 5-17 0-1.2-.1-2.5-.2-3.9h-33.1zm65.6 12.7 14.2 20h-17.5l-11.1-18.7v18.7h-14.3v-58.2h19.3c6.1 0 10.8.4 14.7 3.2 5.2 3.6 7.9 9.1 7.9 16.3 0 9.4-4.9 16.4-13.2 18.7zm-1.2-18.4c0-4.8-3-6.8-9.3-6.8h-3.9v13.8h2.8c7 .1 10.4-1.7 10.4-7zm294.7-16.8c0 1.2-.4 2.2-1.3 3.1-.8.9-1.9 1.3-3.1 1.3s-2.2-.4-3.1-1.3c-.8-.8-1.3-1.9-1.3-3.1s.4-2.2 1.3-3.1c.8-.8 1.9-1.3 3.1-1.3s2.3.4 3.1 1.3 1.3 1.9 1.3 3.1zm-.6 0c0-1-.4-1.9-1.1-2.7-.7-.7-1.6-1.1-2.7-1.1-1 0-1.9.4-2.7 1.1-.7.7-1.1 1.6-1.1 2.7s.4 1.9 1.1 2.7c.7.7 1.6 1.1 2.7 1.1s1.9-.4 2.7-1.1c.7-.7 1.1-1.6 1.1-2.7zm-2.3-.1c-.2.1-.4.2-.7.2.4.1.6.2.8.5s.3.5.3.7v1.2h-.8v-.1-.2-.4c0-.6-.1-.9-.5-1.1-.2-.1-.5-.2-.9-.2h-.7v1.9h-.8v-4.8h1.7c.6 0 1 .1 1.3.2.5.2.7.6.7 1.2.1.4-.1.7-.4.9zm-.3-.9c0-.4-.1-.6-.3-.7s-.6-.2-1-.2h-.7v1.7h.8c.4 0 .6 0 .8-.1.2 0 .4-.3.4-.7z" fill="#53a318" fill-rule="nonzero" transform="matrix(1.29735 0 0 1.29735 20.5293 5.46186)"/></svg>

<?xml version="1.0" encoding="UTF-8" standalone="no"?>
<!DOCTYPE svg PUBLIC "-//W3C//DTD SVG 1.1//EN" "http://www.w3.org/Graphics/SVG/1.1/DTD/svg11.dtd">
<svg width="100%" height="100%" viewBox="0 0 560 400" version="1.1" xmlns="http://www.w3.org/2000/svg" xmlns:xlink="http://www.w3.org/1999/xlink" xml:space="preserve" xmlns:serif="http://www.serif.com/" style="fill-rule:evenodd;clip-rule:evenodd;stroke-linejoin:round;stroke-miterlimit:1.41421;">
    <g id="logosvg.com_1_" transform="matrix(1.29735,0,0,1.29735,20.5293,5.46186)">
        <path d="M206.6,121L220.8,121L220.8,157.4C220.8,171.6 212.1,180.1 199.1,180.1C185.9,180.1 178,172 178,157.4L178,121L192.3,121L192.3,156.8C192.3,163.3 194.4,166.7 199.2,166.7C204.2,166.7 206.6,163.4 206.6,156.8L206.6,121ZM266.9,140.6C266.9,148.1 263.5,154.3 257.7,157.9C254,160.1 249.4,160.5 243.4,160.5L239.3,160.5L239.3,179.2L225,179.2L225,121L244.3,121C250.4,121 255.1,121.4 259,124.2C264.2,127.8 266.9,133.3 266.9,140.6ZM252.5,140.8C252.5,136 249.5,134 243.2,134L239.4,134L239.4,147.8L242,147.8C249,147.9 252.5,146.1 252.5,140.8ZM365.6,153.4L344.2,121L331.4,121L331.4,179.2L345.6,179.2L345.6,146.8L367.3,179.2L379.8,179.2L379.8,121L365.6,121L365.6,153.4ZM165.4,128.6C171.3,134.4 174.4,141.8 174.4,149.8C174.4,158.1 171.5,165.6 166,171.2C160.4,177.1 152.7,180.3 144.6,180.3C136,180.3 128.6,177.2 122.9,171.1C117.4,165.3 114.6,158.1 114.6,149.5C114.6,141.5 117.7,134.1 123.4,128.5C129.1,122.9 136.3,120 144.6,120C152.4,120 159.8,123 165.4,128.6ZM159.7,149.7C159.7,141.2 152.9,134.4 144.7,134.4C136,134.4 129.2,141.2 129.2,149.7C129.2,158.9 136.5,165.9 144.5,165.9C152.9,165.9 159.7,159.2 159.7,149.7ZM319.6,128.6C325.5,134.4 328.6,141.8 328.6,149.8C328.6,158.1 325.7,165.6 320.2,171.2C314.6,177.1 306.9,180.3 298.8,180.3C290.2,180.3 282.9,177.2 277.1,171.1C271.6,165.3 268.8,158.1 268.8,149.5C268.8,141.5 271.9,134.1 277.6,128.5C283.3,122.9 290.5,120 298.8,120C306.5,120 313.9,123 319.6,128.6ZM313.9,149.7C313.9,141.2 307.1,134.4 298.9,134.4C290.2,134.4 283.4,141.2 283.4,149.7C283.4,158.9 290.7,165.9 298.7,165.9C307,165.9 313.8,159.2 313.9,149.7ZM33.6,146.5L33.6,158.1L50.2,158.1C47.3,163.2 42.5,166 37.1,166C29.1,166 21.9,158.9 21.9,149.6C21.9,141.2 28.6,134.3 37.1,134.3C41.7,134.3 45.4,136.2 49.1,139.9L65.3,139.9C60.6,127.5 49.8,119.8 37.3,119.8C29,119.8 21.8,122.7 16.1,128.4C10.4,134 7.3,141.4 7.3,149.4C7.3,158 10.1,165.2 15.5,171C21.2,177.1 28.5,180.2 37.1,180.2C47,180.2 56.3,175.3 61.9,167.2C65.3,162.3 66.9,156.7 66.9,150.2C66.9,149 66.8,147.7 66.7,146.3L33.6,146.3L33.6,146.5ZM99.2,159.2L113.4,179.2L95.9,179.2L84.8,160.5L84.8,179.2L70.5,179.2L70.5,121L89.8,121C95.9,121 100.6,121.4 104.5,124.2C109.7,127.8 112.4,133.3 112.4,140.5C112.4,149.9 107.5,156.9 99.2,159.2ZM98,140.8C98,136 95,134 88.7,134L84.8,134L84.8,147.8L87.6,147.8C94.6,147.9 98,146.1 98,140.8ZM392.7,124C392.7,125.2 392.3,126.2 391.4,127.1C390.6,128 389.5,128.4 388.3,128.4C387.1,128.4 386.1,128 385.2,127.1C384.4,126.3 383.9,125.2 383.9,124C383.9,122.8 384.3,121.8 385.2,120.9C386,120.1 387.1,119.6 388.3,119.6C389.5,119.6 390.6,120 391.4,120.9C392.2,121.8 392.7,122.8 392.7,124ZM392.1,124C392.1,123 391.7,122.1 391,121.3C390.3,120.6 389.4,120.2 388.3,120.2C387.3,120.2 386.4,120.6 385.6,121.3C384.9,122 384.5,122.9 384.5,124C384.5,125.1 384.9,125.9 385.6,126.7C386.3,127.4 387.2,127.8 388.3,127.8C389.4,127.8 390.2,127.4 391,126.7C391.7,126 392.1,125.1 392.1,124ZM389.8,123.9C389.6,124 389.4,124.1 389.1,124.1C389.5,124.2 389.7,124.3 389.9,124.6C390.1,124.9 390.2,125.1 390.2,125.3L390.2,126.5L389.4,126.5L389.4,126.4L389.4,126.2L389.4,125.8C389.4,125.2 389.3,124.9 388.9,124.7C388.7,124.6 388.4,124.5 388,124.5L387.3,124.5L387.3,126.4L386.5,126.4L386.5,121.6L388.2,121.6C388.8,121.6 389.2,121.7 389.5,121.8C390,122 390.2,122.4 390.2,123C390.3,123.4 390.1,123.7 389.8,123.9ZM389.5,123C389.5,122.6 389.4,122.4 389.2,122.3C389,122.2 388.6,122.1 388.2,122.1L387.5,122.1L387.5,123.8L388.3,123.8C388.7,123.8 388.9,123.8 389.1,123.7C389.3,123.7 389.5,123.4 389.5,123Z" style="fill:rgb(83,163,24);fill-rule:nonzero;"/>
    </g>
</svg>
